pix_core/i/viewcategory.svg

<svg preserveAspectRatio="xMinYMid meet" viewBox="0 0 512 512" xmlns="http://www.w3.org/2000/svg"><path d="m0 128c0-35.3 28.7-64 64-64h384c35.3 0 64 28.7 64 64v256c0 35.3-28.7 64-64 64h-384c-35.3 0-64-28.7-64-64zm64 32v64c0 17.7 14.3 32 32 32h320c17.7 0 32-14.3 32-32v-64c0-17.7-14.3-32-32-32h-320c-17.7 0-32 14.3-32 32zm16 160c-13.3 0-24 10.7-24 24s10.7 24 24 24h56c13.3 0 24-10.7 24-24s-10.7-24-24-24zm136 0c-13.3 0-24 10.7-24 24s10.7 24 24 24h48c13.3 0 24-10.7 24-24s-10.7-24-24-24z" fill="#fff"/></svg>

<svg xmlns="http://www.w3.org/2000/svg" viewBox="0 0 512 512" preserveAspectRatio="xMinYMid meet"><!--!Font Awesome Free 6.5.2 by @fontawesome - https://fontawesome.com License - https://fontawesome.com/license/free Copyright 2024 Fonticons, Inc.--><path fill="#fff" d="M0 128C0 92.7 28.7 64 64 64H448c35.3 0 64 28.7 64 64V384c0 35.3-28.7 64-64 64H64c-35.3 0-64-28.7-64-64V128zm64 32v64c0 17.7 14.3 32 32 32H416c17.7 0 32-14.3 32-32V160c0-17.7-14.3-32-32-32H96c-17.7 0-32 14.3-32 32zM80 320c-13.3 0-24 10.7-24 24s10.7 24 24 24h56c13.3 0 24-10.7 24-24s-10.7-24-24-24H80zm136 0c-13.3 0-24 10.7-24 24s10.7 24 24 24h48c13.3 0 24-10.7 24-24s-10.7-24-24-24H216z"/></svg>
